X: 886
T: Gönül Vermişken...
C: Fehmi Tokay
O: Turkey
F: http://compmusic.upf.edu/node/140
N: tahir--sarki--duyek--gonul_vermisken--fehmi_tokay
N: makam= tahir
N: form= sarki
N: usul= duyek = 8/4
M: 8/4
L: 1/16
K: C _2/4B ^3/4f  
Q: 1/4=144
%%MIDI tuningsystem comma53
a4 f2 g2 .a4 .a4  | c'b a4 z2 c'b a2 g2 =f2  | \
w:  ARANAĞME  |   | 
e2 d2 B2 c2 d4 d4  | d2 e2 c2 e2 d4 de fg  | 
w:   |   | 
a4 f2 g2 a4 a4  | g2 =f2 e2 d2 d2 _7/8ed cB c2  | \
w:   |   | 
Bc dc dB c2 Bc dc dB c2  | 
w:   | 
c4 B2 c2 c2 B4 A2  | c2 B4 A2 A4 de fg  | \
w:   |   | 
a4 f2 g2 .a4 .a4  | c'b a4 z2 c'b a2 g2 =f2  | 
w:  ARANAĞME  |   | 
e2 d2 B2 c2 d4 d4  | d2 e2 c2 e2 d4 de fg  | \
w:   |   | 
a4 f2 g2 a4 a4  | g2 =f2 e2 d2 d2 _7/8ed cB c2  | 
w:   |   | 
Bc dc dB c2 Bc dc dB c2  | c4 B2 c2 c2 B4 A2  | \
w:   |   | 
c2 B4 A2 A4 de fg  | 
w:   | 
a4 f2 g2 a4 a4  | c'b a6 a4 g2 f2  | \
w:  *  Gö nül  ver miş  |  ken  *  el  çek tim   | 
g2 e4 d2 d4 de fg  | a4 f2 g2 a4 a4  | 
w:  gü zel *  den   SAZ  |  *  Gö nül  ver miş  | 
c'b a6 a4 g2 f2  | g2 e4 d2 d4 de ce  | \
w:  ken  *  el  çek tim   |  gü zel *  den   SAZ  | 
d4 B2 c2 d4 d4  | g2 g4 f2 _7/8e2 d2 d2 c2  | 
w:  *  Yı kıl dım  cevr_  |  i le  *  çök *  tüm   | 
_7/8ed c4 cB c8  | z4 B2 c2 c4 c4  | \
w:  tez_ *  el *  *  den    |  Yı kıl dım  cevr_  | 
c2 B4 A2 A4 A2 G2  | c2 B4 A2 A4 g2 ab  | 
w:  i le  *  çök tüm   |  tez_ el *  den   SAZ  | 
c'4 c'2 c'2 c'2 b2 b2 a2  | c'b a6 a4 g2 f2  | \
w:  *  E sen  bad_ *  ı   |  ha *  zan dır  şim  | 
g2 e4 d2 d4 fg ab  | 
w:  di  ru *  ha   SAZ  | 
c'4 c'2 c'2 c'2 b2 b2 a2  | c'b a6 a4 g2 f2  | \
w:  *  E sen  bad_ *  ı   |  ha *  zan dır  şim  | 
g2 e4 d2 d4 de ce  | 
w:  di  ru *  ha   SAZ  | 
d4 B2 c2 d4 d4  | g2 g4 f2 _7/8e2 d2 d2 c2  | \
w:  *  Yı kıl dım  cevr_  |  i le  *  çök *  tüm   | 
_7/8ed c4 cB c8  | z4 B2 c2 c4 c4  | 
w:  tez_ *  el *  *  den    |  Yı kıl dım  cevr_  | 
c2 B4 A2 A4 A2 G2  | c2 B4 A2 A4 |
w:  i le  *  çök tüm   |  tez_ el *  den    | 


